X: 24
T:Yr Hafan Ddisglair
T:The Bright Haven
M:6/8
L:1/8
Q:130
S:Cadw Twmpath Collection
R:Jig
A:Wales
Z:brian_martin12345@yahoo.com
K:G
dBG dBG|efg efg|dBG dBG|efgg3|
dBG ecG|fcA gdB|efg fed|cBAG2z:||
Bdd fbb|bff dBB|Bdd fbb|bagf3|
gBd gbg|ece c'eg|dBG ecG|fcAg3:||
